!!!OTL: "Die Kluge" IN DEUZ DA WOHNT EIN SCHAEFERLEIN
!!!ARE: Europa, Mitteleuropa, Deutschland, Niederrhein
!!!SCT: Z1043
!!!YEM: Copyright 1995, estate of Helmut Schaffrath.
**kern
*ICvox
*Ivox
*M2/4
*k[b-]
*d:
{8d
=1
8a
8a
8a
8b-
=2
8a
16a
16g
8a}
{8a
=3
8ccn
8ccn
8.dd
16ccn
=4
8b-
8a
8a}
{8a
=5
8dd
8a
8fn
8d
=6
8e
8d
8d}
{8fn
=7
8fn
8e
8d
8c#
=8
8e
8d
4d}
=9
{8d
16d
16e
8fn
8e
=10
16fn
16g
16a
16b-
8a
8a}
=11
{8b-
8a
8g
8fn
=12
8.e
16d
8d}
==
!!!AGN: Romanze, Ballade
!!!ONB: ESAC (Essen Associative Code) Database: ZUCCAL
!!!AMT: simple duple
!!!AIN: vox
!!!EED: Helmut Schaffrath
!!!EEV: 1.0
*-
